packages/heroicons/src/interstate/outline/arrows-pointing-in.svg

<svg width="16" height="17" viewBox="0 0 16 17" fill="none" xmlns="http://www.w3.org/2000/svg">
<g clip-path="url(#clip0_1243_4892)">
<path d="M5.41783 6.24358L5.41783 2.37023M5.41783 6.24358L1.54448 6.24357M5.41783 6.24358L0.898927 1.72467M5.41783 11.408L5.41783 15.2814M5.41783 11.408L1.54448 11.408M5.41783 11.408L0.898926 15.9269M10.5823 6.24358H14.4556M10.5823 6.24358V2.37023M10.5823 6.24358L15.1012 1.72467M10.5823 11.408H14.4556M10.5823 11.408L10.5823 15.2814M10.5823 11.408L15.1012 15.9269" stroke="black" stroke-width="1.5" stroke-linecap="round" stroke-linejoin="round"/>
</g>
<defs>
<clipPath id="clip0_1243_4892">
<rect width="16" height="16" fill="white" transform="translate(0 0.825806)"/>
</clipPath>
</defs>
</svg>

<svg viewBox="0 0 16 17">
  <g clip-path="url(#a)">
    <path stroke="currentColor" stroke-linecap="round" stroke-linejoin="round" stroke-width="1.5" d="M5.418 6.233V2.359m0 3.874H1.544m3.874 0-4.52-4.52m4.52 9.684v3.873m0-3.873H1.544m3.874 0-4.52 4.519m9.684-9.683h3.874m-3.874 0V2.359m0 3.874 4.52-4.52m-4.52 9.684h3.874m-3.874 0v3.873m0-3.873 4.52 4.519"/>
  </g>
  <defs>
    <clipPath id="a">
      <path d="M0 0h16v16H0z" transform="translate(0 .815)"/>
    </clipPath>
  </defs>
</svg>
